!!!!SEGMENT: pl-kk--kk-i-66--002_anonim--missa-kyrie.krn
!!!cenid: 17xx:2259
!!!COM: Anonim
!!!COM-rismID: pe30004985
!!!CDT:
!!!CNT:
!!!OPR: Missa
!!!OTL: Kyrie
!!!OMV: 002
!!!PDT:
!!!AGN: Sacred; Mass
!!!SMS-siglum: PL-Kk
!!!SMS-shelfmark: Kk.I.66
!!!SMS-shelfwork: 001-002 M
!!!SMS-variant: Basſo PL-Kk Kk.I.66:0012
!!!SMS-altvar: Basſo PL-Kk Kk.I.66:0017
!!!NIFC-rismSourceID: 1001154622
!!!NIFC-islandoraID: pl-kk:2804
!!!URL-pdf-islandora: https://repozytorium.nifc.pl/islandora/object/pl-kk%3A2804/datastream/PDF/view
!!!URL-scan: https://polish.musicsources.pl/pl/lokalizacje/galeria/rekopisy/6137 @EN{Scan on Polish Music Sources Website} @PL{Skany w portalu Dziedzictwo Muzyki Polskiej w otwartym dostępie}
!!!ONB-nifc: UWAGA: części Mszy: 1. Salve sancta parens, 2. Kyrie, 3. Et in terra, 4. Alleluia virga jesse floruit, 5. Beata es virgo Maria, 6. Sanctus, 7. Agnus Dei, 8. Dona nobis, 9. Deo gratias
!!!AIN: 1 empty 2 tenor
!!!key:
**kern	**text	**kern	**text	**kern	**text
*part3	*part3	*part2	*part2	*part1	*part1
*staff3	*staff3	*staff2	*staff2	*staff1	*staff1
*Iempty	*	*Itenor	*	*Itenor	*
*I"Baſso	*	*I"Tenore Secundo	*	*I"Tenore Primo	*
*I'B	*	*I'T 2	*	*I'T 1	*
*clefF4	*	*clefC4	*	*clefC4	*
*k[]	*	*k[]	*	*k[]	*
*C:	*	*C:	*	*C:	*
*M3/2	*	*M3/2	*	*M3/2	*
=1	=1	=1	=1	=1	=1
1C	Ky-	1e	Ky-	1g	Ky-
*	*	*2\right	*	*2\right	*
!	!	!	!	!	!
2C/	-ri-	2c\	-ri-	2e\	-ri-
=2	=2	=2	=2	=2	=2
*2\right	*	*	*	*	*
2G\	-e	1B	-e	1d	-e
2F\	.	.	.	.	.
2E\	e-	2c\	e-	2e\	e-
=3	=3	=3	=3	=3	=3
2F\	-lei-	2d\	-lei-	2f\	-lei-
1G	.	2c\	.	2e\	.
.	.	2B\	.	2d\	.
=4	=4	=4	=4	=4	=4
2C/	-son	2c\	-son	2e\	-son
2G\	Ky-	2B\	Ky-	2d\	Ky-
2G\	-ri-	2c\	-ri-	2e\	-ri-
=5	=5	=5	=5	=5	=5
1G	-e,	2d\	-e	2f\	-e
.	.	2c\	.	2e\	.
2G\	e-	2B\	e-	2d\	e-
=6	=6	=6	=6	=6	=6
2C/	-lei-	2e\	-lei-	2g\	-lei-
2D/	.	2d\	.	2f\	.
2E/	.	2c\	.	2e\	.
!	!	!LO:LB:g=original	!	!LO:LB:g=original	!
=7	=7	=7	=7	=7	=7
1F	.	4B\	.	4d\	.
.	.	4c\	.	4e\	.
.	.	2d\	.	2f\	.
2F#X\	.	2c\	.	2e\	.
!LO:LB:g=original	!	!	!	!	!
=8	=8	=8	=8	=8	=8
1G	-son	1B	-son	1d	-son
2r	.	2r	.	2r	.
=9	=9	=9	=9	=9	=9
1G	Ky-	1B	Ky-	1d	Ky-
2c\	-ri-	2c\	-ri-	2e\	-ri-
=10	=10	=10	=10	=10	=10
2B\	-e	1d	-e	1f	-e
2G\	.	.	.	.	.
2c\	e-	2c\	e-	2e\	e-
=11	=11	=11	=11	=11	=11
2F\	-lei-	2f\	-lei-	2d\	-lei-
1G	.	2e\	.	2c\	.
.	.	2d\	.	2B\	.
=12	=12	=12	=12	=12	=12
2C/	-son	2e\	-son	2c\	-son
2G\	Ky-	2B\	Ky-	2d\	Ky-
2c\	-ri-	2c\	-ri-	2e\	-ri-
=13	=13	=13	=13	=13	=13
2B\	-e	2d\	-e	2f\	-e
2G\	.	2B\	.	2d\	.
2c\	e-	2c\	e-	2e\	e-
!	!	!LO:LB:g=original	!	!LO:LB:g=original	!
=14	=14	=14	=14	=14	=14
2F\	-lei-	2d\	-lei-	2f\	-lei-
1G	.	2c\	.	2e\	.
.	.	2B\	.	2d\	.
=15	=15	=15	=15	=15	=15
1.C	-son	1.c	-son	1.e	-son
!LO:LB:g=original	!	!LO:LB:g=original	!	!LO:LB:g=original	!
=16||	=16||	=16||	=16||	=16||	=16||
*M3/2	*	*M3/2	*	*M3/2	*
!LO:N:vis=-	!	!	!	!	!
0.r	.	1.r	.	2c\	Chri-
.	.	.	.	2c\	-ste
.	.	.	.	2c\	e-
=17	=17	=17	=17	=17	=17
.	.	2G/	Chri-	2g\	-lei-
.	.	2G/	-ste	2g\	-son
.	.	2B\	e-	2f\	e-
=18	=18	=18	=18	=18	=18
2C/	Chri-	2c\	-lei-	2e\	-lei-
2C/	-ste	2c\	-son	2e\	-son
4C/	e-	2c\	e-	2e\	e-
4E/	.	.	.	.	.
=19	=19	=19	=19	=19	=19
1G	-lei-	1B	-lei-	1d	-lei-
2G\	-son	2B\	-son	2d\	-son
=20	=20	=20	=20	=20	=20
2r	.	2r	.	2r	.
2G\	Chri-	2d\	Chri-	2f\	Chri-
2c\	-ste	2c\	-ste	2e\	-ste
=21	=21	=21	=21	=21	=21
2G\	Chri-	2d\	Chri-	2f\	Chri-
2F\	.	2B\	.	2d\	.
2E\	-ste	2c\	-ste	2e\	-ste
!	!	!LO:LB:g=original	!	!LO:LB:g=original	!
=22	=22	=22	=22	=22	=22
2F\	e-	2f\	e-	2d\	e-
1G	-lei-	2e\	-lei-	2c\	-lei-
.	.	2d\	.	2B\	.
=23	=23	=23	=23	=23	=23
2C/	-son	2e\	-son	2c\	-son
2G\	Chri-	2B\	Chri-	2d\	Chri-
2c\	-ste	2c\	-ste	2e\	-ste
!LO:LB:g=original	!	!	!	!	!
=24	=24	=24	=24	=24	=24
2B\	Chri-	1d	Chri-	1f	Chri-
2G\	.	.	.	.	.
2c\	-ste	2c\	-ste	2e\	-ste
=25	=25	=25	=25	=25	=25
2F\	e-	2A\	e-	4d\	e-
.	.	.	.	8f\L	.
.	.	.	.	8d\J	.
1G	-lei-	2c\	-lei-	2e\	-lei-
.	.	2B\	.	2d\	.
=26	=26	=26	=26	=26	=26
1.C	-son	1.c	-son	1.e	-son
!LO:LB:g=original	!	!LO:LB:g=original	!	!LO:LB:g=original	!
=27||	=27||	=27||	=27||	=27||	=27||
*M3/2	*	*M3/2	*	*M3/2	*
2C/	Ky-	2c\	Ky-	2e\	Ky-
2E\	.	2e\	.	2g\	.
2G\	-ri-	2d\	-ri-	2f\	-ri-
=28	=28	=28	=28	=28	=28
1c	-e	1c	-e	1e	-e
2G\	e-	2B\	e-	2d\	e-
=29	=29	=29	=29	=29	=29
1.G	-lei-	2B\	-lei-	2d\	-lei-
.	.	2c\	.	2e\	.
.	.	2d\	.	2f\	.
=30	=30	=30	=30	=30	=30
2C/	-son	2c\	-son	2e\	-son
2C/	Ky-	2e\	Ky-	2g\	Ky-
2E/	-ri-	2c\	-ri-	2e\	-ri-
=31	=31	=31	=31	=31	=31
2C/	-e	1G	-e	1c	-e
2E/	.	.	.	.	.
2C/	e-	2G/	e-	2B-\	e-
=32	=32	=32	=32	=32	=32
1F	-lei-	1c	-lei-	2A/	-lei-
.	.	.	.	4f\	.
.	.	.	.	4e\	.
2F#X\	.	4f\	.	4d\	.
.	.	4e\	.	4c\	.
!	!	!	!	!LO:LB:g=original	!
=33	=33	=33	=33	=33	=33
1G	-son	1d	-son	1B	-son
2r	.	2r	.	2r	.
!LO:LB:g=original	!	!LO:LB:g=original	!	!	!
=34	=34	=34	=34	=34	=34
2.G\	Ky-	2.B\	Ky-	2.d\	Ky-
4G\	-rie	4c\	-rie	4e\	-rie
2G\	.	2d\	.	2f\	.
=35	=35	=35	=35	=35	=35
2C/	e-	2c\	e-	2e\	e-
2E\	.	2e\	.	2g\	.
2G\	.	2d\	.	2f\	.
=36	=36	=36	=36	=36	=36
2c\	-lei-	2c\	-lei-	2e\	-lei-
2G\	.	2B\	.	2d\	.
2C/	-son	2c\	-son	2e\	-son
=37	=37	=37	=37	=37	=37
2F\	e-	2A\	e-	2f\	e-
1G	-lei-	2c\	-lei-	2e\	-lei-
.	.	2B\	.	2d\	.
=38	=38	=38	=38	=38	=38
1C	-son	1G	-son	1e	-son
2C/	e-	2G/	e-	2e\	e-
=39	=39	=39	=39	=39	=39
1.C	-lei-	1.A	-lei-	1.f	-lei-
=40	=40	=40	=40	=40	=40
!	!	!	!	!LO:N:vis=1	!
1.C	-son	1.G	-son	1.e	-son
==	==	==	==	==	==
*-	*-	*-	*-	*-	*-
!!!system-decoration: [(s1,s2,s3)]
!!!EED: Andrzej Borzym
!!!EEV: 2021-08-06
!!!ENC: Anastazja Marusiak
!!!END: 2021-07-07
